X: 42303
T: Wedding In The Garden, The
R: jig
M: 6/8
K: Aminor
e2A ABd|e2d eag|egd egd|edB edB|
eAA ABd|e2d eag|egg age|d2b age:|
e2a abc'|bag ega|eab eac'|bag e2d|
e2a abc'|bag e2d|egg age|d2b age:|

